;FLAVOR:Marlin
;TIME:4258
;Filament used: 0.958226m
;Layer height: 0.2
;MINX:19
;MINY:19
;MINZ:0.2
;MAXX:201
;MAXY:201
;MAXZ:0.2
;Generated with Cura_SteamEngine 4.8.0
M140 S50
M105
M190 S50
M104 S200
M105
M109 S200
M82 ;absolute extrusion mode
; Ender 3 Custom Start G-code
G92 E0 ; Reset Extruder
G28 ; Home all axes
G1 Z2.0 F3000 ; Move Z Axis up little to prevent scratching of Heat Bed
G1 X0.1 Y20 Z0.3 F5000.0 ; Move to start position
G1 X0.1 Y200.0 Z0.3 F1500.0 E15 ; Draw the first line
G1 X0.4 Y200.0 Z0.3 F5000.0 ; Move to side a little
G1 X0.4 Y20 Z0.3 F1500.0 E30 ; Draw the second line
G92 E0 ; Reset Extruder
G1 Z2.0 F3000 ; Move Z Axis up little to prevent scratching of Heat Bed
G1 X5 Y20 Z0.3 F5000.0 ; Move over to prevent blob squish
G92 E0
G92 E0
G1 F1500 E-6.5
;LAYER_COUNT:1
;LAYER:0
M107
G0 F6000 X22.198 Y22.264 Z0.2
;TYPE:SKIRT
G1 F1500 E0
G1 F480 X22.886 Y21.627 E0.02682
G1 X23.626 Y21.051 E0.05364
G1 X24.412 Y20.539 E0.08047
G1 X25.239 Y20.097 E0.1073
G1 X26.101 Y19.727 E0.13413
G1 X26.991 Y19.431 E0.16096
G1 X27.903 Y19.213 E0.18778
G1 X28.83 Y19.072 E0.2146
G1 X29.701 Y19.013 E0.23957
G1 X30.022 Y19.004 E0.24875
G1 X30.33 Y19 E0.25757
G1 X79.293 Y19 E1.65809
G1 X80.152 Y19.011 E1.68266
G1 X81.088 Y19.064 E1.70948
G1 X81.681 Y19.14 E1.72658
G1 X82.601 Y19.322 E1.7534
G1 X83.233 Y19.495 E1.77215
G1 X83.925 Y19.707 E1.79285
G1 X86.36 Y20.415 E1.86538
G1 X88.805 Y21.051 E1.93765
G1 X91.284 Y21.624 E2.01042
G1 X93.718 Y22.11 E2.08142
G1 X96.21 Y22.537 E2.15374
G1 X98.697 Y22.891 E2.22559
G1 X101.218 Y23.178 E2.29817
G1 X103.711 Y23.39 E2.36974
G1 X106.195 Y23.531 E2.4409
G1 X108.753 Y23.603 E2.5141
G1 X111.24 Y23.603 E2.58524
G1 X113.799 Y23.531 E2.65846
G1 X116.26 Y23.391 E2.72897
G1 X118.814 Y23.175 E2.80228
G1 X121.27 Y22.895 E2.87299
G1 X123.785 Y22.538 E2.94565
G1 X126.295 Y22.107 E3.0185
G1 X128.738 Y21.617 E3.08977
G1 X131.152 Y21.064 E3.1606
G1 X133.631 Y20.417 E3.23389
G1 X136.062 Y19.711 E3.3063
G1 X136.593 Y19.546 E3.3222
G1 X136.888 Y19.459 E3.331
G1 X137.798 Y19.233 E3.35782
G1 X138.725 Y19.084 E3.38468
G1 X139.667 Y19.015 E3.41169
G1 X139.997 Y19.005 E3.42114
G1 X140.33 Y19 E3.43066
G1 X189.435 Y19.001 E4.83525
G1 X190.133 Y19.01 E4.85521
G1 X191.069 Y19.062 E4.88203
G1 X191.998 Y19.194 E4.90887
G1 X192.912 Y19.404 E4.93569
G1 X193.805 Y19.691 E4.96252
G1 X194.67 Y20.054 E4.98936
G1 X195.501 Y20.488 E5.01617
G1 X196.292 Y20.992 E5.043
G1 X197.037 Y21.562 E5.06983
G1 X197.731 Y22.193 E5.09666
G1 X198.368 Y22.88 E5.12346
G1 X198.945 Y23.62 E5.1503
G1 X199.457 Y24.406 E5.17713
G1 X199.9 Y25.233 E5.20397
G1 X200.271 Y26.094 E5.23078
G1 X200.567 Y26.984 E5.25761
G1 X200.786 Y27.896 E5.28444
G1 X200.927 Y28.823 E5.31126
G1 X200.987 Y29.701 E5.33643
G1 X200.996 Y30.022 E5.34562
G1 X201 Y30.33 E5.35443
G1 X200.999 Y79.427 E6.75879
G1 X200.989 Y80.147 E6.77938
G1 X200.936 Y81.083 E6.8062
G1 X200.75 Y82.279 E6.84082
G1 X200.506 Y83.227 E6.86882
G1 X200.3 Y83.9 E6.88895
G1 X199.585 Y86.361 E6.96226
G1 X198.95 Y88.801 E7.03438
G1 X198.38 Y91.274 E7.10697
G1 X197.883 Y93.745 E7.17906
G1 X197.465 Y96.198 E7.25024
G1 X197.109 Y98.693 E7.32233
G1 X196.822 Y101.221 E7.3951
G1 X196.61 Y103.711 E7.46658
G1 X196.469 Y106.194 E7.53772
G1 X196.397 Y108.753 E7.61095
G1 X196.397 Y111.241 E7.68211
G1 X196.469 Y113.8 E7.75534
G1 X196.609 Y116.258 E7.82576
G1 X196.826 Y118.817 E7.89922
G1 X197.105 Y121.271 E7.96987
G1 X197.463 Y123.791 E8.04267
G1 X197.892 Y126.293 E8.11528
G1 X198.371 Y128.686 E8.18509
G1 X198.954 Y131.217 E8.25938
G1 X199.572 Y133.59 E8.32952
G1 X200.299 Y136.094 E8.4041
G1 X200.448 Y136.574 E8.41848
G1 X200.535 Y136.867 E8.42722
G1 X200.763 Y137.777 E8.45405
G1 X200.913 Y138.702 E8.48086
G1 X200.985 Y139.667 E8.50854
G1 X200.995 Y139.999 E8.51804
G1 X201 Y140.33 E8.52751
G1 X200.999 Y189.4 E9.93109
G1 X200.99 Y190.127 E9.95189
G1 X200.939 Y191.064 E9.97873
G1 X200.807 Y191.992 E10.00554
G1 X200.598 Y192.906 E10.03236
G1 X200.311 Y193.799 E10.05919
G1 X199.949 Y194.665 E10.08604
G1 X199.515 Y195.496 E10.11285
G1 X199.011 Y196.287 E10.13968
G1 X198.442 Y197.032 E10.1665
G1 X197.811 Y197.727 E10.19335
G1 X197.124 Y198.365 E10.22016
G1 X196.385 Y198.942 E10.24698
G1 X195.599 Y199.454 E10.27381
G1 X194.773 Y199.897 E10.30062
G1 X193.911 Y200.269 E10.32748
G1 X193.022 Y200.565 E10.35428
G1 X192.11 Y200.785 E10.38111
G1 X191.183 Y200.926 E10.40794
G1 X190.299 Y200.987 E10.43328
G1 X189.978 Y200.996 E10.44247
G1 X189.67 Y201 E10.45128
G1 X140.55 Y200.999 E11.85629
G1 X139.848 Y200.989 E11.87637
G1 X138.912 Y200.936 E11.90319
G1 X137.984 Y200.803 E11.93001
G1 X137.395 Y200.676 E11.94724
G1 X136.753 Y200.5 E11.96628
G1 X136.114 Y200.304 E11.9854
G1 X133.64 Y199.585 E12.05909
G1 X131.195 Y198.949 E12.13136
G1 X128.716 Y198.376 E12.20413
G1 X126.282 Y197.89 E12.27513
G1 X123.79 Y197.463 E12.34745
G1 X121.303 Y197.109 E12.4193
G1 X118.782 Y196.822 E12.49188
G1 X116.289 Y196.61 E12.56345
G1 X113.805 Y196.469 E12.63461
G1 X111.247 Y196.397 E12.70781
G1 X108.76 Y196.397 E12.77895
G1 X106.201 Y196.469 E12.85217
G1 X103.74 Y196.609 E12.92268
G1 X101.186 Y196.825 E12.99599
G1 X98.73 Y197.105 E13.0667
G1 X96.215 Y197.462 E13.13936
G1 X93.705 Y197.893 E13.21221
G1 X91.262 Y198.383 E13.28348
G1 X88.848 Y198.936 E13.35431
G1 X86.369 Y199.583 E13.4276
G1 X83.938 Y200.289 E13.50001
G1 X83.407 Y200.454 E13.51591
G1 X83.112 Y200.541 E13.52471
G1 X82.202 Y200.767 E13.55153
G1 X81.275 Y200.916 E13.57839
G1 X80.333 Y200.985 E13.6054
G1 X80.003 Y200.995 E13.61485
G1 X79.67 Y201 E13.62437
G1 X30.565 Y200.999 E15.02896
G1 X29.867 Y200.99 E15.04892
G1 X28.931 Y200.938 E15.07574
G1 X28.002 Y200.806 E15.10258
G1 X27.088 Y200.596 E15.1294
G1 X26.195 Y200.309 E15.15623
G1 X25.33 Y199.946 E15.18307
G1 X24.499 Y199.512 E15.20988
G1 X23.708 Y199.008 E15.23671
G1 X22.963 Y198.438 E15.26354
G1 X22.269 Y197.807 E15.29037
G1 X21.632 Y197.12 E15.31717
G1 X21.055 Y196.38 E15.34401
G1 X20.543 Y195.594 E15.37084
G1 X20.1 Y194.767 E15.39768
G1 X19.729 Y193.906 E15.42449
G1 X19.433 Y193.016 E15.45132
G1 X19.214 Y192.104 E15.47815
G1 X19.073 Y191.177 E15.50497
G1 X19.013 Y190.288 E15.53046
G1 X19.004 Y189.955 E15.53999
G1 X19 Y189.658 E15.54848
G1 X19.001 Y140.536 E16.95355
G1 X19.012 Y139.829 E16.97378
G1 X19.067 Y138.893 E17.0006
G1 X19.201 Y137.964 E17.02745
G1 X19.488 Y136.794 E17.06191
G1 X19.711 Y136.062 E17.08379
G1 X20.415 Y133.64 E17.15594
G1 X21.051 Y131.195 E17.2282
G1 X21.624 Y128.716 E17.30098
G1 X22.11 Y126.282 E17.37198
G1 X22.537 Y123.79 E17.4443
G1 X22.891 Y121.303 E17.51615
G1 X23.178 Y118.782 E17.58873
G1 X23.39 Y116.289 E17.66029
G1 X23.531 Y113.805 E17.73146
G1 X23.603 Y111.247 E17.80466
G1 X23.603 Y108.758 E17.87585
G1 X23.531 Y106.201 E17.94902
G1 X23.391 Y103.742 E18.01947
G1 X23.174 Y101.183 E18.09293
G1 X22.895 Y98.729 E18.16357
G1 X22.537 Y96.209 E18.23638
G1 X22.109 Y93.717 E18.3087
G1 X21.616 Y91.255 E18.38052
G1 X21.064 Y88.848 E18.45116
G1 X20.417 Y86.369 E18.52444
G1 X19.711 Y83.938 E18.59685
G1 X19.552 Y83.426 E18.61219
G1 X19.465 Y83.133 E18.62093
G1 X19.237 Y82.223 E18.64776
G1 X19.087 Y81.298 E18.67457
G1 X19.015 Y80.333 E18.70225
G1 X19.005 Y80.001 E18.71175
G1 X19 Y79.67 E18.72122
G1 X19.001 Y30.525 E20.12695
G1 X19.01 Y29.86 E20.14597
G1 X19.063 Y28.924 E20.17279
G1 X19.195 Y27.995 E20.19963
G1 X19.406 Y27.081 E20.22646
G1 X19.694 Y26.189 E20.25327
G1 X20.057 Y25.324 E20.2801
G1 X20.492 Y24.493 E20.30693
G1 X20.996 Y23.703 E20.33374
G1 X21.566 Y22.958 E20.36057
G1 X22.198 Y22.264 E20.38742
G0 F6000 X22.589 Y22.439
G1 F480 X23.274 Y21.823 E20.41377
G1 X24.01 Y21.27 E20.4401
G1 X24.791 Y20.782 E20.46644
G1 X25.611 Y20.364 E20.49277
G1 X26.465 Y20.019 E20.51911
G1 X27.345 Y19.749 E20.54544
G1 X28.245 Y19.557 E20.57176
G1 X29.159 Y19.443 E20.59811
G1 X29.712 Y19.413 E20.61395
G1 X30.033 Y19.404 E20.62314
G1 X30.33 Y19.4 E20.63163
G1 X79.293 Y19.4 E22.03216
G1 X80.146 Y19.411 E22.05656
G1 X81.065 Y19.464 E22.08289
G1 X81.62 Y19.535 E22.09889
G1 X82.523 Y19.715 E22.12523
G1 X83.115 Y19.878 E22.14279
G1 X83.742 Y20.07 E22.16155
G1 X86.253 Y20.801 E22.23636
G1 X88.729 Y21.444 E22.30953
G1 X91.182 Y22.011 E22.38154
G1 X93.644 Y22.503 E22.45336
G1 X96.158 Y22.934 E22.52632
G1 X98.667 Y23.291 E22.59881
G1 X101.137 Y23.571 E22.66991
G1 X103.692 Y23.789 E22.74326
G1 X106.197 Y23.931 E22.81503
G1 X108.742 Y24.003 E22.88785
G1 X111.251 Y24.003 E22.95962
G1 X113.797 Y23.931 E23.03247
G1 X116.318 Y23.788 E23.1047
G1 X118.822 Y23.576 E23.17658
G1 X121.335 Y23.29 E23.24892
G1 X123.877 Y22.929 E23.32236
G1 X126.335 Y22.507 E23.3937
G1 X128.801 Y22.012 E23.46564
G1 X131.269 Y21.446 E23.53807
G1 X133.738 Y20.802 E23.61106
G1 X136.19 Y20.09 E23.68409
G1 X136.707 Y19.93 E23.69957
G1 X137.002 Y19.843 E23.70837
G1 X137.895 Y19.621 E23.73469
G1 X138.805 Y19.478 E23.76104
G1 X139.679 Y19.415 E23.7861
G1 X140.009 Y19.405 E23.79554
G1 X140.33 Y19.4 E23.80473
G1 X189.43 Y19.401 E25.20917
G1 X190.128 Y19.41 E25.22914
G1 X191.047 Y19.462 E25.25547
G1 X191.958 Y19.593 E25.28179
G1 X192.854 Y19.803 E25.30811
G1 X193.729 Y20.09 E25.33446
G1 X194.576 Y20.452 E25.3608
G1 X195.388 Y20.886 E25.38714
G1 X196.159 Y21.388 E25.41345
G1 X196.884 Y21.956 E25.4398
G1 X197.557 Y22.585 E25.46615
G1 X198.172 Y23.269 E25.49246
G1 X198.726 Y24.004 E25.51878
G1 X199.214 Y24.785 E25.54513
G1 X199.633 Y25.605 E25.57147
G1 X199.979 Y26.458 E25.5978
G1 X200.249 Y27.338 E25.62413
G1 X200.442 Y28.239 E25.65048
G1 X200.556 Y29.152 E25.6768
G1 X200.587 Y29.712 E25.69284
G1 X200.596 Y30.033 E25.70203
G1 X200.6 Y30.33 E25.71052
G1 X200.599 Y79.421 E27.11471
G1 X200.589 Y80.141 E27.13531
G1 X200.536 Y81.06 E27.16164
G1 X200.359 Y82.197 E27.19455
G1 X200.123 Y83.111 E27.22155
G1 X199.927 Y83.753 E27.24075
G1 X199.199 Y86.254 E27.31526
G1 X198.557 Y88.725 E27.38829
G1 X197.992 Y91.177 E27.46026
G1 X197.492 Y93.664 E27.53282
G1 X197.067 Y96.152 E27.60502
G1 X196.71 Y98.658 E27.67742
G1 X196.428 Y101.143 E27.74896
G1 X196.211 Y103.689 E27.82205
G1 X196.069 Y106.196 E27.89387
G1 X195.997 Y108.742 E27.96673
G1 X195.997 Y111.252 E28.03852
G1 X196.069 Y113.798 E28.11138
G1 X196.212 Y116.316 E28.18352
G1 X196.425 Y118.829 E28.25565
G1 X196.71 Y121.332 E28.32771
G1 X197.071 Y123.877 E28.40124
G1 X197.493 Y126.332 E28.47249
G1 X197.984 Y128.789 E28.54416
G1 X198.563 Y131.302 E28.61792
G1 X199.195 Y133.731 E28.68971
G1 X199.904 Y136.17 E28.76237
G1 X200.065 Y136.688 E28.77788
G1 X200.152 Y136.981 E28.78663
G1 X200.375 Y137.874 E28.81295
G1 X200.52 Y138.783 E28.83928
G1 X200.585 Y139.679 E28.86498
G1 X200.595 Y140.011 E28.87448
G1 X200.6 Y140.33 E28.88361
G1 X200.599 Y189.395 E30.28705
G1 X200.59 Y190.122 E30.30784
G1 X200.539 Y191.041 E30.33417
G1 X200.408 Y191.953 E30.36052
G1 X200.198 Y192.849 E30.38685
G1 X199.912 Y193.724 E30.41318
G1 X199.551 Y194.571 E30.43952
G1 X199.117 Y195.383 E30.46585
G1 X198.615 Y196.155 E30.49219
G1 X198.047 Y196.88 E30.51854
G1 X197.419 Y197.553 E30.54486
G1 X196.735 Y198.169 E30.57119
G1 X196 Y198.723 E30.59752
G1 X195.22 Y199.212 E30.62385
G1 X194.4 Y199.631 E30.65019
G1 X193.547 Y199.977 E30.67652
G1 X192.667 Y200.248 E30.70286
G1 X191.767 Y200.441 E30.72919
G1 X190.853 Y200.556 E30.75554
G1 X190.288 Y200.587 E30.77173
G1 X189.967 Y200.596 E30.78091
G1 X189.67 Y200.6 E30.78941
G1 X140.556 Y200.599 E32.19425
G1 X139.854 Y200.589 E32.21433
G1 X138.935 Y200.536 E32.24066
G1 X138.024 Y200.403 E32.267
G1 X137.489 Y200.287 E32.28266
G1 X136.87 Y200.118 E32.30101
G1 X136.215 Y199.917 E32.32061
G1 X133.747 Y199.199 E32.39413
G1 X131.271 Y198.556 E32.4673
G1 X128.818 Y197.989 E32.53931
G1 X126.356 Y197.497 E32.61113
G1 X123.842 Y197.066 E32.68409
G1 X121.333 Y196.709 E32.75658
G1 X118.863 Y196.429 E32.82768
G1 X116.308 Y196.211 E32.90103
G1 X113.803 Y196.069 E32.9728
G1 X111.258 Y195.997 E33.04562
G1 X108.749 Y195.997 E33.11739
G1 X106.203 Y196.069 E33.19024
G1 X103.682 Y196.212 E33.26247
G1 X101.178 Y196.424 E33.33435
G1 X98.665 Y196.71 E33.40669
G1 X96.123 Y197.071 E33.48013
G1 X93.665 Y197.493 E33.55147
G1 X91.199 Y197.988 E33.62341
G1 X88.731 Y198.554 E33.69584
G1 X86.262 Y199.198 E33.76883
G1 X83.818 Y199.908 E33.84162
G1 X83.293 Y200.07 E33.85734
G1 X82.998 Y200.157 E33.86614
G1 X82.105 Y200.379 E33.89246
G1 X81.195 Y200.522 E33.91881
G1 X80.321 Y200.585 E33.94387
G1 X79.991 Y200.595 E33.95331
G1 X79.67 Y200.6 E33.9625
G1 X30.57 Y200.599 E35.36694
G1 X29.872 Y200.59 E35.38691
G1 X28.953 Y200.538 E35.41324
G1 X28.042 Y200.407 E35.43956
G1 X27.146 Y200.197 E35.46589
G1 X26.271 Y199.91 E35.49223
G1 X25.424 Y199.548 E35.51857
G1 X24.612 Y199.114 E35.54491
G1 X23.841 Y198.612 E35.57122
G1 X23.116 Y198.044 E35.59757
G1 X22.443 Y197.415 E35.62392
G1 X21.828 Y196.731 E35.65023
G1 X21.274 Y195.996 E35.67656
G1 X20.786 Y195.215 E35.7029
G1 X20.367 Y194.395 E35.72924
G1 X20.021 Y193.542 E35.75557
G1 X19.751 Y192.662 E35.7819
G1 X19.558 Y191.761 E35.80825
G1 X19.444 Y190.848 E35.83457
G1 X19.413 Y190.277 E35.85093
G1 X19.404 Y189.944 E35.86046
G1 X19.4 Y189.658 E35.86864
G1 X19.401 Y140.542 E37.27354
G1 X19.412 Y139.835 E37.29376
G1 X19.467 Y138.916 E37.3201
G1 X19.6 Y138.005 E37.34643
G1 X19.871 Y136.911 E37.37867
G1 X20.077 Y136.235 E37.39888
G1 X20.801 Y133.747 E37.473
G1 X21.444 Y131.271 E37.54617
G1 X22.011 Y128.818 E37.61819
G1 X22.503 Y126.356 E37.69
G1 X22.934 Y123.842 E37.76296
G1 X23.291 Y121.333 E37.83545
G1 X23.571 Y118.863 E37.90655
G1 X23.789 Y116.308 E37.9799
G1 X23.931 Y113.803 E38.05167
G1 X24.003 Y111.258 E38.1245
G1 X24.003 Y108.747 E38.19632
G1 X23.931 Y106.203 E38.26912
G1 X23.788 Y103.684 E38.34129
G1 X23.575 Y101.171 E38.41342
G1 X23.29 Y98.668 E38.48548
G1 X22.929 Y96.123 E38.55901
G1 X22.508 Y93.671 E38.63017
G1 X22.011 Y91.193 E38.70246
G1 X21.446 Y88.731 E38.77471
G1 X20.802 Y86.262 E38.8477
G1 X20.092 Y83.818 E38.9205
G1 X19.935 Y83.312 E38.93565
G1 X19.848 Y83.019 E38.94439
G1 X19.625 Y82.126 E38.97072
G1 X19.48 Y81.217 E38.99705
G1 X19.415 Y80.321 E39.02275
G1 X19.405 Y79.989 E39.03225
G1 X19.4 Y79.67 E39.04137
G1 X19.401 Y30.531 E40.44693
G1 X19.41 Y29.866 E40.46596
G1 X19.462 Y28.946 E40.49231
G1 X19.594 Y28.035 E40.51864
G1 X19.805 Y27.139 E40.54497
G1 X20.092 Y26.264 E40.57131
G1 X20.455 Y25.418 E40.59765
G1 X20.889 Y24.606 E40.62398
G1 X21.392 Y23.835 E40.65031
G1 X21.961 Y23.111 E40.67665
G1 X22.589 Y22.439 E40.70296
G0 F6000 X22.981 Y22.617
G1 F480 X23.662 Y22.024 E40.72879
G1 X24.394 Y21.494 E40.75464
G1 X25.169 Y21.031 E40.78046
G1 X25.982 Y20.638 E40.80629
G1 X26.827 Y20.318 E40.83214
G1 X27.696 Y20.075 E40.85795
G1 X28.584 Y19.909 E40.88379
G1 X29.723 Y19.813 E40.91648
G1 X30.044 Y19.804 E40.92567
G1 X30.33 Y19.8 E40.93385
G1 X79.293 Y19.8 E42.33437
G1 X80.14 Y19.811 E42.3586
G1 X81.042 Y19.864 E42.38445
G1 X81.559 Y19.931 E42.39936
G1 X82.445 Y20.107 E42.4252
G1 X82.998 Y20.26 E42.44161
G1 X83.659 Y20.463 E42.46139
G1 X86.146 Y21.186 E42.53547
G1 X88.644 Y21.836 E42.6093
G1 X91.111 Y22.405 E42.68172
G1 X93.576 Y22.898 E42.75362
G1 X96.07 Y23.325 E42.826
G1 X98.597 Y23.685 E42.89901
G1 X101.129 Y23.973 E42.9719
G1 X103.636 Y24.186 E43.04387
G1 X106.197 Y24.331 E43.11724
G1 X108.731 Y24.403 E43.18975
G1 X111.263 Y24.403 E43.26218
G1 X113.796 Y24.331 E43.33466
G1 X116.336 Y24.187 E43.40743
G1 X118.902 Y23.97 E43.48109
G1 X121.369 Y23.689 E43.55211
G1 X123.924 Y23.326 E43.62593
G1 X126.409 Y22.899 E43.69805
G1 X128.897 Y22.401 E43.77063
G1 X131.362 Y21.835 E43.84297
G1 X133.846 Y21.188 E43.91639
G1 X136.317 Y20.47 E43.99
G1 X136.82 Y20.314 E44.00506
G1 X137.115 Y20.227 E44.01386
G1 X137.991 Y20.01 E44.03967
G1 X138.884 Y19.871 E44.06552
G1 X139.691 Y19.815 E44.08866
G1 X140.021 Y19.805 E44.0981
G1 X140.33 Y19.8 E44.10694
G1 X189.425 Y19.801 E45.51124
G1 X190.123 Y19.81 E45.53121
G1 X191.024 Y19.861 E45.55702
G1 X191.918 Y19.993 E45.58287
G1 X192.796 Y20.202 E45.60869
G1 X193.653 Y20.489 E45.63454
G1 X194.48 Y20.85 E45.66035
G1 X195.273 Y21.283 E45.68619
G1 X196.024 Y21.784 E45.71202
G1 X196.728 Y22.35 E45.73785
G1 X197.379 Y22.976 E45.76369
G1 X197.972 Y23.657 E45.78952
G1 X198.502 Y24.388 E45.81534
G1 X198.966 Y25.163 E45.84118
G1 X199.36 Y25.976 E45.86702
G1 X199.68 Y26.82 E45.89284
